assets/images/afrikons/smiley-outline.svg

<svg viewBox="0 0 50 50" xmlns="http://www.w3.org/2000/svg"><path d="m0 0h50v50h-50z" fill="none"/><path d="m25 4.41a20.59 20.59 0 1 0 20.59 20.59 20.62 20.62 0 0 0 -20.59-20.59zm-13.82 12.23a17.68 17.68 0 0 1 7.65-1.72v4.41a13.26 13.26 0 0 0 -5.76 1.3zm13.82 21.36a16.9 16.9 0 0 1 -11.84-4.81l3.08-3.19a12.58 12.58 0 0 0 17.52 0l3.08 3.16a16.9 16.9 0 0 1 -11.84 4.84zm11.93-17.37a13.26 13.26 0 0 0 -5.76-1.3v-4.41a17.68 17.68 0 0 1 7.65 1.72z" fill="none"/><path d="m42.68 7.32a25 25 0 0 0 -35.36 35.36 25 25 0 0 0 35.36-35.36zm-17.68 38.27a20.59 20.59 0 1 1 20.59-20.59 20.62 20.62 0 0 1 -20.59 20.59z"/><path d="m25 33.56a12.51 12.51 0 0 1 -8.76-3.56l-3.08 3.16a17 17 0 0 0 23.68 0l-3.08-3.16a12.51 12.51 0 0 1 -8.76 3.56z"/><path d="m18.83 14.92a17.68 17.68 0 0 0 -7.65 1.72l1.89 4a13.26 13.26 0 0 1 5.76-1.3z"/><path d="m31.17 19.33a13.26 13.26 0 0 1 5.76 1.3l1.89-4a17.68 17.68 0 0 0 -7.65-1.72z"/></svg>

<svg xmlns="http://www.w3.org/2000/svg" viewBox="0 0 50 50"><defs><style>.cls-1{fill:none;}</style></defs><title>smiley-outline</title><g id="Layer_2" data-name="Layer 2"><g id="Layer_1-2" data-name="Layer 1"><rect class="cls-1" width="50" height="50"/><path class="cls-1" d="M25,4.41A20.59,20.59,0,1,0,45.59,25,20.62,20.62,0,0,0,25,4.41ZM11.18,16.64a17.68,17.68,0,0,1,7.65-1.72v4.41a13.26,13.26,0,0,0-5.76,1.3ZM25,38a16.9,16.9,0,0,1-11.84-4.81L16.24,30a12.58,12.58,0,0,0,17.52,0l3.08,3.16A16.9,16.9,0,0,1,25,38ZM36.93,20.63a13.26,13.26,0,0,0-5.76-1.3V14.92a17.68,17.68,0,0,1,7.65,1.72Z"/><path d="M42.68,7.32A25,25,0,0,0,7.32,42.68,25,25,0,0,0,42.68,7.32ZM25,45.59A20.59,20.59,0,1,1,45.59,25,20.62,20.62,0,0,1,25,45.59Z"/><path d="M25,33.56A12.51,12.51,0,0,1,16.24,30l-3.08,3.16a17,17,0,0,0,23.68,0L33.76,30A12.51,12.51,0,0,1,25,33.56Z"/><path d="M18.83,14.92a17.68,17.68,0,0,0-7.65,1.72l1.89,4a13.26,13.26,0,0,1,5.76-1.3Z"/><path d="M31.17,19.33a13.26,13.26,0,0,1,5.76,1.3l1.89-4a17.68,17.68,0,0,0-7.65-1.72Z"/></g></g></svg>
